resources/haticons/SVG/ghost.svg

<!-- Generated by IcoMoon.io -->
<svg version="1.1" xmlns="http://www.w3.org/2000/svg" width="24" height="24" viewBox="0 0 24 24">
<title>ghost</title>
<path fill="#738a94" d="M9.604 19.199h-9.596v4.801h9.597zM23.994 19.199h-9.591v4.801h9.591zM23.997 9.6h-23.997v4.8h23.997zM24 0h-4.801v4.801h4.801zM14.404 0h-14.396v4.801h14.396z"></path>
</svg>

<svg xmlns="http://www.w3.org/2000/svg" width="24" height="24"><path fill="#738a94" d="M9.604 19.199H.008V24h9.597zm14.39 0h-9.591V24h9.591zm.003-9.599H0v4.8h23.997zM24 0h-4.801v4.801H24zm-9.596 0H.008v4.801h14.396z"/></svg>
